fence-electric.svg

<svg fill="currentColor" viewBox="0 0 24 24"><path d="M9 9v2H7V9H5v2H3V9H1v12h2v-2h2v2h2v-2h2v2h2v-2h2v2h2v-2h2v2h2v-2h2v2h2V9h-2v2h-2V9h-2v2h-2V9h-2v2h-2V9zm-6 4h2v4H3zm4 0h2v4H7zm4 0h2v4h-2zm4 0h2v4h-2zm4 0h2v4h-2zM7 4h4V2l6 3h-4v2z"/></svg>

<svg  viewBox="0 0 24 24" fill="currentColor"><path  d="M9 9V11H7V9H5V11H3V9H1V21H3V19H5V21H7V19H9V21H11V19H13V21H15V19H17V21H19V19H21V21H23V9H21V11H19V9H17V11H15V9H13V11H11V9H9M3 13H5V17H3V13M7 13H9V17H7V13M11 13H13V17H11V13M15 13H17V17H15V13M19 13H21V17H19V13M7 4H11V2L17 5H13V7L7 4Z"/></svg>
